!!!!SEGMENT: pl-sa--282-a-vii-42_brentner-johann-joseph-ignaz--in-te-confido-o-jesu.krn
!!!cenid: 17xx:554
!!!COM: Brentner, Johann Joseph Ignaz
!!!COM-rismID:
!!!CDT: 1689/11/03-1742/06/28
!!!CNT: Czech
!!!OTL: In te confido o Jesu
!!!PDT:
!!!AGN: Sacred
!!!SMS-siglum: PL-SA
!!!SMS-shelfmark: 282/A VII 42
!!!SMS-shelfwork: W
!!!SMS-variant:
!!!SMS-altvar:
!!!NIFC-rismSourceID: 1001029967
!!!NIFC-islandoraID:
!!!URL-pdf-islandora:
!!!URL-scan: https://bc.bdsandomierz.pl/dlibra/publication/1765/edition/1733/content @EN{Scan on Cyfrowa Biblioteka Diecezjalna w Sandomierzu} @PL{Skany w portalu Cyfrowa Biblioteka Diecezjalna w Sandomierzu}
!!!ONB-nifc:
!!!AIN: 1 oboe 1 organ 1 vox
!!!key:
**kern	**fb	**kern	**dynam	**kern	**text
*part3	*	*part2	*part2	*part1	*part1
*staff3	*	*staff2	*	*staff1	*staff1
*Iorgan	*	*Ioboe	*	*Ivox	*
*I"Organo	*	*I"Violino vel Hobois Solo	*	*I"Canto Solo	*
*I'org	*	*I'vl vel ob	*	*I'C	*
*clefF4	*	*clefG2	*	*clefC1	*
*k[b-e-]	*	*k[b-e-]	*	*k[b-e-]	*
*B-:	*	*B-:	*	*B-:	*
*M2/2	*	*M2/2	*	*M2/2	*
*met(c|)	*	*met(c|)	*	*met(c|)	*
=1	=1	=1	=1	=1	=1
*	*above	*	*	*	*
!LO:TX:a:i:t=allo	!	!LO:TX:a:i:t=Lente	!LO:DY:a	!LO:TX:a:t=5	!
!LO:TX:b:i:t=In te Confido	!	!LO:TX:b:i:t=In te Confido	!	!	!
4BB-/	.	8r	.	00r	.
.	.	8ff\L	.	.	.
8D\L	6	8b-\	.	.	.
8E-\J	.	8gg\J	.	.	.
8F\L	.	4a/	.	.	.
8E-\	.	.	.	.	.
!	!	!LO:TX:a:t=P:problem=mixed beam	!	!	!
8D\	.	8b-/L	p	.	.
8E-\J	.	8gg\J	.	.	.
=2	=2	=2	=2	=2	=2
.	6	.	.	.	.
8D\L	7	8ff\L	.	.	.
8G\J	.	(>16ee-\L	.	.	.
.	.	16ff\JJ)	.	.	.
8C\L	.	8ee-\L	.	.	.
8F\J	7	(>16dd\L	.	.	.
.	.	16ee-\JJ)	.	.	.
8BB-/L	.	4dd\	.	.	.
8C/	.	.	.	.	.
8D/	.	8r	.	.	.
8C/J	.	8dd\	.	.	.
=3	=3	=3	=3	=3	=3
8BB-/L	2	16cc\LL	.	.	.
.	.	16b-\	.	.	.
8AA/J	6	16cc\	.	.	.
.	.	16dd\JJ	.	.	.
8r	.	16cc\LL	.	.	.
.	.	16ff\	.	.	.
8A\	6	16ee-\	.	.	.
.	.	16ff\JJ	.	.	.
8A\L	2	16b-\LL	.	.	.
.	.	16a\	.	.	.
8G\J	.	16b-\	.	.	.
.	.	16cc\JJ	.	.	.
8r	.	16b-\LL	.	.	.
.	.	16gg\	.	.	.
8En\	.	16ff\	.	.	.
.	.	16gg\JJ	.	.	.
=4	=4	=4	=4	=4	=4
8F\L	.	16a\LL	.	.	.
.	.	16g\	.	.	.
8G\	.	16a\	.	.	.
.	.	16b-\JJ	.	.	.
8A\	.	16cc\LL	.	.	.
.	.	16a\	.	.	.
8B-\J	.	16dd\	.	.	.
.	.	16b-\JJ	.	.	.
8c\L	.	8g/L	.	.	.
8c\	.	8c/J	.	.	.
8A\	6	8r	.	.	.
8F\J	.	8ff\	.	.	.
!LO:LB:g=original	!	!LO:LB:g=original	!	!	!
=5	=5	=5	=5	=5	=5
4B-\	.	(>8gg\L	.	1r	.
.	.	16ff\L)	.	.	.
.	.	16gg\JJ	.	.	.
4A\	6	8ff\L	.	.	.
.	.	16een\L	.	.	.
.	.	16ff\JJ	.	.	.
8r	.	8bb-\L	.	.	.
8G\L	.	16aa\L	.	.	.
.	.	16bb-\JJ	.	.	.
8En\	.	8r	.	.	.
8C\J	n	8een\	.	.	.
=6	=6	=6	=6	=6	=6
8D/L	.	(>16ff\LL	.	2r	.
.	.	16een\	.	.	.
8BB-/J	.	16ff\)	.	.	.
.	.	16dd\JJ	.	.	.
8C/L	.	4eent\	.	.	.
8CC/J	n	.	.	.	.
4FF/	.	4ff\	.	8r	.
.	.	.	.	8ff\	In
8D\L	6	4r	.	8b-\	te
8E-\J	.	.	.	8gg\	Con-
=7	=7	=7	=7	=7	=7
8F\L	.	1r	.	4a\	-fi-
8E-\	.	.	.	.	.
8D\	6	.	.	8b-\	-do
8E-\J	.	.	.	8gg\	O
8D/L	.	.	.	16ff\LL	Je-
.	.	.	.	16ee-\JJ	.
8BB-/J	.	.	.	8ff\	-su
8C/L	.	.	.	16ee-\LL	Ca-
.	.	.	.	16dd\JJ	.
8F/J	7	.	.	8ee-\	-ra
=8	=8	=8	=8	=8	=8
4BB-/	.	8r	.	4dd\	ſpes
.	.	8ff\	.	.	.
8r	.	8dd\L	.	4r	.
8B-\	.	16cc\L	.	.	.
.	.	16b-\JJ	.	.	.
4B-\	6	(>16gg\LL	.	2r	.
.	.	16ff\J)	.	.	.
.	.	8gg\J	.	.	.
4A\	6	16ff\LL	.	.	.
.	.	16een\J	.	.	.
.	.	8gg\J	.	.	.
=9	=9	=9	=9	=9	=9
!	!	!	!	!	!
8r	.	(>16bb-\LL	.	1r	.
.	.	16aa\J)	.	.	.
8G\L	.	8bb-\J	.	.	.
8En\	.	8r	.	.	.
8C\J	n	8een\	.	.	.
!	!	!	!	!LO:TX:a:t=1	!
8D/L	.	16ff\LL	.	.	.
.	.	16een\	.	.	.
8BB-/J	.	16ff\	.	.	.
.	.	16dd\JJ	.	.	.
!	!	!LO:LB:g=original	!	!	!
8C/L	.	4eent\	.	.	.
8CC/J	n	.	.	.	.
!LO:LB:g=original	!	!	!	!	!
=10	=10	=10	=10	=10	=10
4FF/	.	4ff\	.	8r	.
.	.	.	.	8ff\	in
8D\L	6	4r	.	8b-\	te
8E-\J	.	.	.	8gg\	Con-
8F\L	.	4r	.	4a\	-fi-
!	!	!	!	!LO:LB:g=original	!
8E-\	6	.	.	.	.
8D\	.	8r	.	8b-\	-do
8E-\J	.	8b-\	.	8gg\	O
=11	=11	=11	=11	=11	=11
8D\L	.	4b-/	.	16ff\LL	Je-
.	.	.	.	16ee-\JJ	.
8G\J	7	.	.	8ff\	-su
8C\L	7	8b-/L	.	16ee-\LL	Cha-
.	.	.	.	16dd\JJ	.
8F\J	7	8a/J	.	8ee-\	-ra
8BB-/L	.	4b-/	.	4dd\	ſpes
8C/	.	.	.	.	.
8D/	.	4r	.	8r	.
8BB-/J	.	.	.	8dd\	in
=12	=12	=12	=12	=12	=12
8BB-/L	2	0r	.	16cc\LL	te
.	.	.	.	16b-\JJ	.
8AA/J	6	.	.	16cc\LL	in
.	.	.	.	16dd\JJ	.
8r	.	.	.	16cc\LL	te
.	.	.	.	16ff\JJ	.
8A\	.	.	.	16ee-\LL	Con-
.	.	.	.	16ff\JJ	.
8G\L	.	.	.	16b-\LL	-fi-
.	.	.	.	16a\JJ	.
8G\	.	.	.	8b-\	-do
8En\	.	.	.	8r	.
8C\J	n	.	.	8b-\	O
=13	=13	=13	=13	=13	=13
4F\	.	.	.	16a\LL	Je-
.	.	.	.	16g\JJ	.
.	.	.	.	16a\LL	-su
.	.	.	.	16b-\JJ	.
8F\L	.	.	.	16a\LL	Cha-
.	.	.	.	16dd\JJ	.
8B-\J	.	.	.	16cc\LL	-ra
.	.	.	.	16dd\JJ	.
!	!	!	!	!LO:LB:g=original	!
8c\L	n	.	.	4g\	ſpe
8c\	.	.	.	.	.
8A\	.	.	.	8r	.
8F\J	.	.	.	8cc\	ad
!LO:LB:g=original	!	!	!	!	!
=14	=14	=14	=14	=14	=14
4G\	.	1r	.	16b-\LL	te
.	.	.	.	16a\JJ	.
.	.	.	.	8b-\	ad
4F\	.	.	.	16a\LL	te
.	.	.	.	16g\JJ	.
.	.	.	.	8a\	re-
!LO:TX:a:t=P:problem=mixed beam	!	!	!	!	!
8BB-/L	.	.	.	16dd\LL	-qui-
.	.	.	.	16cc\JJ	.
8B-\	.	.	.	8dd\	-ro
8A\	.	.	.	8r	.
8G\J	6/	.	.	8een\	Con-
=15	=15	=15	=15	=15	=15
8A\L	6	4r	.	8ff\	-fi-
8B-\	.	.	.	16een\	-do
.	.	.	.	16dd\	in
8F\	.	8r	.	8cc\	te
8F\J	.	8a/	.	8cc\	re-
8BB-/L	.	8b-/L	.	8dd\	-qui-
8C/	.	16a/L	.	16cc\	-re
.	.	16g/JJ	.	16b-\	ad
8D/	.	8f/	.	8a\	te
8BB-/J	.	8r	.	8dd\	O
=16	=16	=16	=16	=16	=16
8AA/L	.	2r	.	16cc\LL	Ju-
.	.	.	.	16b-\JJ	.
8BB-/J	.	.	.	16a\LL	-sa
.	.	.	.	16b-\JJ	.
!	!	!	!	!LO:LB:g=original	!
8C/L	.	.	.	8.g/	Cha-
8CC/J	n	.	.	.	.
.	.	.	.	16g/	-ra
4FF/	.	8r	.	4f/	ſpes
!	!	!LO:TX:a:t=P:problem=mixed beam	!	!	!
.	.	8cc\L	.	.	.
8AA/L	.	8f/	.	4r	.
8BB-/J	.	8dd\J	.	.	.
=17	=17	=17	=17	=17	=17
8C/L	n	4en/	.	1r	.
8BB-/J	.	.	.	.	.
!	!	!LO:TX:a:t=P:problem=mixed beam	!	!	!
8AA/L	6	8f/L	.	.	.
8BB-/J	.	8dd\J	.	.	.
!	!	!	!	!LO:TX:a:t=1	!
8AA/L	6	(>16cc\LL	.	.	.
.	.	16b-\J	.	.	.
8D/J	.	8cc\J)	.	.	.
!	!	!LO:LB:g=original	!	!	!
8GG/L	.	(>16b-\LL	.	.	.
.	.	16a\J	.	.	.
*	*reverse	*	*	*	*
8C/J	7#	8b-\J)	.	.	.
*	*Xreverse	*	*	*	*
!LO:LB:g=original	!	!	!	!	!
=18	=18	=18	=18	=18	=18
4F\	.	4a/	.	8r	.
.	.	.	.	8cc\	in
8F\L	.	4r	.	8f/	te
8B-\J	.	.	.	8dd\	Con-
8c\L	.	2r	.	4en#/	-fi-
8B-\	.	.	.	.	.
8A\	6	.	.	8f/	-do
8B-\J	.	.	.	8dd\	O
=19	=19	=19	=19	=19	=19
8A\L	6	2r	.	16cc\LL	Je-
.	.	.	.	16b-\JJ	.
8F\J	.	.	.	8cc\	-su
8G\L	.	.	.	16b-\LL	Cha-
.	.	.	.	16a\JJ	.
8C\J	n	.	.	8b-\	-ra
8F\L	.	8r	.	4a\	ſpes.
8F\	6	8ff\L	.	.	.
8D\	.	8dd\	.	4r	.
8E-\J	.	8gg\J	.	.	.
=20	=20	=20	=20	=20	=20
8F\L	.	4a/	.	1r	.
8E-\	6	.	.	.	.
!	!	!LO:TX:a:t=P:problem=mixed beam	!	!	!
8D\	.	8b-/L	.	.	.
8E-\J	.	8gg\J	.	.	.
8D\L	.	8ff\L	.	.	.
8G\	7	(>16ee-\L	.	.	.
.	.	16ff\JJ)	.	.	.
8C\	7	(>16ee-\L	.	.	.
.	.	16dd\L)	.	.	.
8F\J	7	8ee-\JJ	.	.	.
=21	=21	=21	=21	=21	=21
4BB-/	.	4dd\	.	8r	.
.	.	.	.	8ff\	ad
8D\L	.	4r	.	8b-\	te
8E-\J	.	.	.	8gg\	re-
8F\L	.	4r	.	4a\	-qui-
8E-\	6	.	.	.	.
8D\	.	8r	.	8b-\	-ro
8E-\J	.	8ee-\	.	8gg\	O
!	!	!	!	!LO:LB:g=original	!
=22	=22	=22	=22	=22	=22
!LO:TX:a:t=P:problem=mixed beam	!	!	!	!	!
8BB-/L	.	16dd\LL	.	16ff\LL	Je-
.	.	(>16cc\J	.	16ee-\JJ	.
8B-\J	.	8dd\J)	.	8ff\	-su
8c\L	.	16cc\LL	.	16ee-\LL	Cha-
.	.	(>16b-\J	.	16dd\JJ	.
8F\J	7	8cc\J)	.	8ee-\	-ra
!LO:LB:g=original	!	!	!	!	!
8BB-/L	.	4b-\	.	4dd\	ſpes
8C/	.	.	.	.	.
8D/	.	8r	.	8r	.
8BB-/J	.	8dd\	.	8ff\	Con-
!	!	!LO:LB:g=original	!	!	!
=23	=23	=23	=23	=23	=23
8E-\L	.	8ee-\L	.	8gg\	-fi-
8F\J	.	16dd\L	.	16ff\	-do
.	.	16cc\JJ	.	16ee-\	in
8BB-/	.	8b-\L	.	8dd\	te
!	!	!LO:TX:a:t=f	!	!	!
8r	.	8ff\J	.	8dd\	re-
4r	.	8gg\L	.	8ee-\	-qui-
.	.	16ff\L	.	16dd\	-ro
.	.	16ee-\JJ	.	16cc\	ad
8r	.	8dd\	.	16b-\LL	te
.	.	.	.	16cc\JJ	.
8B-\	.	8r	.	16dd\LL	ad
.	.	.	.	16ee-\JJ	.
=24	=24	=24	=24	=24	=24
8A\L	6	0r	.	8ff\	te
8G\J	.	.	.	8r	.
8F\L	.	.	.	8ee-\	ad
16G\L	.	.	.	16dd\LL	te
16A\JJ	.	.	.	16cc\JJ	.
!	!	!	!	!LO:LB:g=original	!
4B-\	.	.	.	8dd\	re-
.	.	.	.	16cc\LL	-qui-
.	.	.	.	16b-\JJ	.
!	!	!	!	!LO:N:vis=8	!
4F\	.	.	.	4cc\	-ro
=25	=25	=25	=25	=25	=25
8G\L	.	.	.	4b-\	Je-
16A\L	.	.	.	.	.
16B-\JJ	.	.	.	.	.
8c\L	.	.	.	4ee-\	-ſu
8A\J	.	.	.	.	.
8B-\L	.	.	.	8dd\	Cha-
8E-\J	.	.	.	16cc\LL	-ra
.	.	.	.	16b-\JJ	.
*	*	*	*	*	*ij
!LO:TX:a:t=P:problem=mixed beam	!	!	!	!	!
8F\L	.	.	.	8f/	Cha-
8FF/J	.	.	.	8a\	-ra
*	*	*	*	*	*Xij
=26	=26	=26	=26	=26	=26
4BB-/	.	8r	.	4b-\	ſpes
.	.	8ff\	.	.	.
8r	.	8dd\L	.	4r	.
8B-\	.	16cc\L	.	.	.
.	.	16b-\JJ	.	.	.
!LO:LB:g=original	!	!	!	!	!
8A\L	6	16cc\LL	.	2r	.
.	.	16b-\	.	.	.
8G\	.	16cc\	.	.	.
.	.	16dd\JJ	.	.	.
8A\	.	16cc\LL	.	.	.
.	.	16ff\	.	.	.
8F\J	.	16ee-\	.	.	.
.	.	16ff\JJ	.	.	.
=27	=27	=27	=27	=27	=27
!	!	!	!	!LO:TX:a:t=7	!
8G\L	.	16b-\LL	.	00r	.
.	.	16a\	.	.	.
8F\	.	16b-\	.	.	.
.	.	16cc\JJ	.	.	.
8G\	.	16b-\LL	.	.	.
.	.	16gg\	.	.	.
8En\J	6	16ff\	.	.	.
.	.	16gg\JJ	.	.	.
8F\L	.	16a/LL	.	.	.
.	.	16g/	.	.	.
8G\	.	16a/	.	.	.
.	.	16b-/JJ	.	.	.
8A\	.	16cc\LL	.	.	.
.	.	16a\	.	.	.
8B-\J	.	16dd\	.	.	.
.	.	16b-\JJ	.	.	.
!	!	!LO:LB:g=original	!	!	!
=28	=28	=28	=28	=28	=28
8c\L	n	8g/L	.	.	.
8c\	.	8c/J	.	.	.
8A\	.	8r	.	.	.
8F\J	.	8ff\	.	.	.
4B-\	6	(>16gg\LL	.	.	.
.	.	16ff\J	.	.	.
.	.	8gg\J)	.	.	.
4A\	6	(>16ff\LL	.	.	.
.	.	16een\J	.	.	.
.	.	8ff\J)	.	.	.
=29	=29	=29	=29	=29	=29
8r	.	(>16bb-\LL	.	.	.
.	.	16aa\J	.	.	.
8G\	.	8bb-\J)	.	.	.
8En\L	6	8r	.	.	.
8C\J	n	8een\	.	.	.
8D/L	.	16ff\LL	.	.	.
.	.	(>16een\	.	.	.
8BB-/J	.	16ff\)	.	.	.
.	.	16dd\JJ	.	.	.
8C/L	.	4een\	.	.	.
8CC/J	n	.	.	.	.
=30	=30	=30	=30	=30	=30
!LO:TX:a:t=P:problem=mixed beam	!	!	!	!	!
8FF/L	.	4ff\	.	.	.
8F\J	.	.	.	.	.
8D/L	.	8r	.	.	.
8BB-/J	.	8b-\	.	.	.
!LO:LB:g=original	!	!	!	!	!
4E-\	6	16cc\LL	.	.	.
!	!	!LO:SIC:s=16an	!	!	!
.	.	16a-X\J	.	.	.
.	.	8cc\J	.	.	.
4D\	6	(>16b-\LL	.	.	.
!	!	!LO:SIC:s=16an	!	!	!
.	.	16a-\J	.	.	.
.	.	8b-\J)	.	.	.
=31	=31	=31	=31	=31	=31
8r	.	16ee-\LL	.	0r	.
.	.	(>16dd\J	.	.	.
8c\L	.	8ee-\J)	.	.	.
8A\	.	8r	.	.	.
8F\J	.	8ee-\	.	.	.
4B-\	.	(>16dd\LL	.	.	.
.	.	16cc\J	.	.	.
.	.	8dd\J)	.	.	.
4F\	.	(>16cc\LL	.	.	.
.	.	16b-\J	.	.	.
.	.	8cc\J)	.	.	.
=32	=32	=32	=32	=32	=32
8r	.	(>16gg\LL	.	.	.
.	.	16ff\J	.	.	.
8E-/L	.	8gg\J)	.	.	.
8C/	6	8r	.	.	.
!	!	!LO:LB:g=original	!	!	!
8AA/J	.	16ff\LL	.	.	.
.	.	16ee-\JJ	.	.	.
!LO:TX:a:t=P:problem=mixed beam	!	!	!	!	!
8BB-/L	.	16dd\LL	.	.	.
.	.	16ee-\	.	.	.
8G\J	.	16ff\	.	.	.
.	.	16gg\JJ	.	.	.
8A\L	.	16cc\LL	.	.	.
.	.	16dd\	.	.	.
8F\J	.	16ee-\	.	.	.
.	.	16ff\JJ	.	.	.
=33	=33	=33	=33	=33	=33
8G\L	.	(>16b-\LL	.	1r	.
.	.	16a\J	.	.	.
8G\	.	8b-\J)	.	.	.
8c\	.	4ee-\	.	.	.
8A\J	6	.	.	.	.
8B-\L	.	8dd\L	.	.	.
8G\J	.	16cc\L	.	.	.
.	.	16b-\JJ	.	.	.
8E-\L	6	8cc/L	.	.	.
8F\J	.	8a/J	.	.	.
=34	=34	=34	=34	=34	=34
4BB-;;/	.	4b-;;/	.	8r	.
.	.	.	.	8dd\	ad
8BB-/L	.	4r	.	8g\	te
8C/J	.	.	.	8ee-\	re-
4GG/	.	8r	.	16dd\LL	-qui-
.	.	.	.	16cc\JJ	.
.	.	8dd\L	.	8dd\	.
8BB-/L	6	8g\	.	4g\	-ro
8C/J	.	8ee-\J	.	.	.
!LO:LB:g=original	!	!	!	!LO:LB:g=original	!
=35	=35	=35	=35	=35	=35
4GG/	.	(>16dd\LL	.	8r	.
.	.	16cc\J)	.	.	.
.	.	8dd\J	.	8dd\	ad
8BB-/L	6	4g/	.	8g/	te
8C/J	.	.	.	8ee-\	re-
4GG/	6	8r	.	16dd\LL	-qui-
.	.	.	.	16cc\J	.
.	.	8dd\L	.	8dd\J	.
8BB-/L	.	8g\	.	4g/	ro
8C/J	.	8ee-\J	.	.	.
=36	=36	=36	=36	=36	=36
4GG/	.	(>16dd\LL	.	8r	.
.	.	16cc\J)	.	.	.
.	.	8dd\J	.	8dd\	ad
8BBn/L	6	8g/	.	8g/	te
8GG/J	n	8r	.	8gg\	ſu-
8C\L	.	2r	.	4ee-\	-ſpi-
8E-\	.	.	.	.	.
8G\	.	.	.	8dd\	-ro
8c\J	n	.	.	16ee-\LL	O
.	.	.	.	16cc\JJ	.
!	!	!LO:LB:g=original	!	!	!
=37	=37	=37	=37	=37	=37
8G\L	n	2r	.	16bn\LL	Cha-
.	.	.	.	16a\JJ	.
8G\	.	.	.	8bn\	-ra
8E-\	6	.	.	16cc\LL	re-
.	.	.	.	16bn\JJ	.
8C\J	.	.	.	8cc\	-qui-
4G\	.	8r	.	4dd\	-es.
!	!	!LO:TX:a:t=P:problem=mixed beam	!	!	!
.	.	8dd\L	.	.	.
8r	.	8g/	.	4r	.
8BBn/	.	8gg\J	.	.	.
=38	=38	=38	=38	=38	=38
!LO:TX:a:t=P:problem=mixed beam	!	!	!	!	!
8C\L	.	4ee-\	.	1r	.
8E-\	.	.	.	.	.
8G\	n	8dd\L	.	.	.
8C/J	.	16ee-\L	.	.	.
.	.	16cc\JJ	.	.	.
8D\L	6/	(>16bn\LL	.	.	.
.	.	16a\J	.	.	.
8G\	n	8b\J)	.	.	.
8E-\	6	(>16cc\LL	.	.	.
.	.	16bn\J	.	.	.
8C\J	.	8cc\J)	.	.	.
!LO:PB:g=original	!	!	!	!LO:PB:g=original	!
=39	=39	=39	=39	=39	=39
4GG/	#	4dd\	.	8r	.
.	.	.	.	8dd\	ad
8r	.	8r	.	8g/	te
!	!	!	!LO:DY:b	!	!
8Bn\	.	8dd\	p	8gg\	re-
!LO:TX:a:t=P:problem=mixed beam	!	!	!	!	!
8c\L	.	4ccT\	.	4ee-\	-qui-
8C/J	.	.	.	.	.
8G\L	n	8bn/	.	8dd\	-ro
8c\J	.	8r	.	16ee-\LL	O
.	.	.	.	16cc\JJ	.
=40	=40	=40	=40	=40	=40
8G\L	n	2r	.	16bn\LL	Cha-
.	.	.	.	16a\JJ	.
8D\J	6/	.	.	8b\	-ra
8E-\L	6	.	.	16cc\LL	re-
.	.	.	.	16b\JJ	.
8C\J	.	.	.	8cc\	-qui-
8G\L	#	4r	.	4dd\	-es
8A-X\	.	.	.	.	.
8G\	.	8r	.	8r	.
8F\J	6-	8a-X/	.	8dd\	ad
=41	=41	=41	=41	=41	=41
4E-\	.	8g/L	.	8ee-\	te
.	.	8g/	.	8ee-\	ad
8r	.	8g/	.	8ee-\	te
8E-\	.	8b-/J	.	8ee-\	ſu-
8E-\L	.	4gg\	.	8ee-\	-ſpi-
8F\	6-	.	.	16dd\LL	-ro
.	.	.	.	16cc\JJ	.
!	!	!LO:TX:a:t=P:problem=w źródle "Berte Cito" zapisane na pięciolinii, za taktem 41	!	!	!
!	!	!LO:TX:a:t=Verte\nCito	!	!	!
8G\	.	4r	.	8b-\	ſu-
8E-\J	.	.	.	8b-\	-ſpi-
!	!	!LO:PB:g=original	!	!	!
=42	=42	=42	=42	=42	=42
8A-X\L	.	2r	.	8cc\	-ro
8B-\J	.	.	.	16b-\	ad
.	.	.	.	16a-X\	te
!	!	!	!	!LO:LB:g=original	!
8c\L	.	.	.	8g/	O
16B-\L	.	.	.	8a-X/	Cha-
16A-X\JJ	.	.	.	.	.
*	*	*	*	*2\right	*
8G\L	.	4r	.	2b-\	-ra
16F\L	.	.	.	.	.
16E-\JJ	.	.	.	.	.
8D/L	.	8r	.	.	.
8BB-/J	.	8ff\	.	.	.
!LO:LB:g=original	!	!	!	!	!
=43	=43	=43	=43	=43	=43
*	*	*	*	*	*ij
8E-\L	.	8gg\L	.	2b-\	Cha-
16D\L	.	16ff\L	.	.	.
16C\JJ	.	16ee-\JJ	.	.	.
!LO:TX:a:t=P:problem=mixed beam	!	!	!	!	!
8BB-/L	.	8dd\L	.	.	.
8A-X\J	.	16cc\L	.	.	.
.	.	16dd\JJ	.	.	.
!	!	!	!	!LO:N:vis=4	!
8G\L	6	8ee-\	.	8b-\	.
8A-X\J	.	4r	.	16cc\LL	.
.	.	.	.	16a-X\JJ	-ra
*	*	*	*	*	*Xij
!LO:TX:a:t=P:problem=mixed beam	!	!	!	!	!
8B-\L	.	.	.	8.f/	re-
8BB-/J	4	8r	.	.	.
.	3	.	.	16e-/	-qui-
=44	=44	=44	=44	=44	=44
4E-\	.	8r	.	4e-/	-es
!	!	!LO:TX:a:t=P:problem=mixed beam	!	!	!
.	.	8b-\L	.	.	.
8G\L	.	8e-/	.	4r	.
8A-X\J	.	8b-\J	.	.	.
8B-\L	.	4d/	.	2r	.
8A-X\	.	.	.	.	.
!	!	!LO:TX:a:t=P:problem=mixed beam	!	!	!
8G\	.	8e-/L	.	.	.
8A-X\J	.	8cc\J	.	.	.
=45	=45	=45	=45	=45	=45
8G\L	.	(<16b-/LL	.	2r	.
.	.	16a-X/J	.	.	.
8E-\J	.	8b-/J)	.	.	.
!LO:TX:a:t=P:problem=mixed beam	!	!	!	!	!
8F\L	.	(<16a-X/LL	.	.	.
.	.	16g/J	.	.	.
8BB-/J	7-	8a-/J)	.	.	.
4E-\	.	4g/	.	8r	.
.	.	.	.	8b-\	ad
8G\L	6	4r	.	8e-/	te
8A-X\J	.	.	.	8b-\	ſu-
!	!	!LO:LB:g=original	!	!	!
=46	=46	=46	=46	=46	=46
8B-\L	.	4r	.	4d/	-ſpi-
8A-X\J	.	.	.	.	.
8G\L	6	8r	.	8e-/	-ro
8A-X\J	.	8e-/	.	8cc\	O
8G\L	.	8e-/L	.	16b-\LL	Cha-
.	.	.	.	16a-X\JJ	.
8E-\J	.	8g/J	.	8b-\	-ra
!LO:TX:a:t=P:problem=mixed beam	!	!	!	!	!
8F\L	-	16f/LL	.	16a-X\LL	re-
.	.	16e-/	.	16g\JJ	.
8BB-/J	7-	16f/	.	8a-\	-qui-
.	.	16d/JJ	.	.	.
!LO:LB:g=original	!	!	!	!LO:LB:g=original	!
=47	=47	=47	=47	=47	=47
4E-\	.	4e-/	.	8g,\	-es
.	.	.	.	8g\	ad
8r	.	4r	.	8cc\	te
8D\	.	.	.	8dd\	re-
8C\L	.	2r	.	4ee-\	-qui-
8E-\J	.	.	.	.	.
8G\L	#	.	.	8dd\	-ro
8E-\J	.	.	.	8gg\	O
=48	=48	=48	=48	=48	=48
8A-X\L	.	2r	.	16cc\LL	Cha-
.	.	.	.	16bn\JJ	.
8G\J	.	.	.	8cc,\	-ra
.	5	.	.	.	.
4F\	6-	.	.	16ff\LL	re-
.	.	.	.	16ee-\JJ	.
.	.	.	.	16dd\LL	-qui-
.	.	.	.	16cc\JJ	.
8G\L	n	8r	.	4bn\	-es
16G\L	.	8g\L	.	.	.
16F\JJ	.	.	.	.	.
8E-\L	6	8cc\	.	4r	.
8BBn#\J	6	8dd\J	.	.	.
=49	=49	=49	=49	=49	=49
8C\L	.	4ee-\	.	1r	.
8E-\	.	.	.	.	.
8G\	n	8dd\L	.	.	.
8E-\J	.	8gg\J	.	.	.
8A-X\L	.	(>16cc\LL	.	.	.
.	.	16bn\J)	.	.	.
8G\J	.	8cc\J	.	.	.
.	5	.	.	.	.
4F\	6-	16ff\LL	.	.	.
.	.	16ee-\	.	.	.
.	.	16dd\	.	.	.
.	.	16cc\JJ	.	.	.
=50	=50	=50	=50	=50	=50
8G\L	n	8bn/L	.	8r	.
16G\L	.	16b/L	.	8g\	ad
16F\JJ	.	16a/JJ	.	.	.
!	!	!LO:LB:g=original	!	!	!
8E-\L	6	8g/L	.	8cc\	te
8D\J	6	16a/L	.	8dd\	ſu-
.	.	16bn/JJ	.	.	.
8C\L	.	(>8cc\L	.	4ee-\	-ſpi-
8E-\	.	8cc\	.	.	.
8G\	.	8bn\J)	.	8dd\	-ro
8E-\J	.	8r	.	8gg\	O
!LO:LB:g=original	!	!	!	!LO:LB:g=original	!
=51	=51	=51	=51	=51	=51
4A-X\	.	1r	.	16cc\LL	Cha-
.	.	.	.	16bn\JJ	.
.	5	.	.	8cc,\	-ra
*	*reverse	*	*	*	*
4F\	6-	.	.	16ff\LL	re-
*	*Xreverse	*	*	*	*
.	.	.	.	16ee-\JJ	.
.	.	.	.	16dd\LL	-qui-
.	.	.	.	16cc\JJ	.
4G\	#	.	.	8bn,\	-es
.	.	.	.	8dd\	ad
8r	.	.	.	8bn\	te
8G\	n	.	.	16a\LL	re-
.	.	.	.	16g\JJ	.
=52	=52	=52	=52	=52	=52
4C/	.	8r	.	4ee-\	-qui-
.	.	8gg\	.	.	.
4r	.	8ee-\L	.	4ee-\	-ro
.	.	16dd\L	.	.	.
.	.	16cc\JJ	.	.	.
4F\	.	4aa\	.	8r	.
.	.	.	.	8cc\	ad
4r	.	4f/	.	8a\	te
.	.	.	.	16g/LL	ſu-
.	.	.	.	16f/JJ	.
=53	=53	=53	=53	=53	=53
4BB-/	.	8r	.	4dd\	-ſpi-
.	.	8ff\	.	.	.
4r	.	8dd\L	.	4dd\	-ro
.	.	16cc\L	.	.	.
.	.	16b-\JJ	.	.	.
4E-\	.	4gg\	.	8r	.
.	.	.	.	8b-\	ad
4r	.	4e-/	.	8g/	te
.	.	.	.	16f/LL	re-
.	.	.	.	16e-/JJ	.
!	!	!	!	!LO:LB:g=original	!
=54	=54	=54	=54	=54	=54
4AA/	.	2r	.	8cc\	-qui-
.	.	.	.	16cc\	-ro
.	.	.	.	16b-\	ſu-
8r	.	.	.	8a\	-ſpi-
8C/	6	.	.	16g,\	-ro
.	.	.	.	16a\	ad
8D\L	#	8r	.	4f#X/	te
8BB-\	6	8dd\	.	.	.
8C\	.	8ee-\L	.	4r	.
8F#X\J	6	16dd\L	.	.	.
.	.	16cc\JJ	.	.	.
!	!	!LO:LB:g=original	!	!	!
=55	=55	=55	=55	=55	=55
4G\	.	8b-\L	.	8r	.
.	.	8b-\J	.	8dd\	re-
!	!	!	!	!LO:N:vis=16	!
4r	.	8cc\L	.	8ee-\	-qui-
.	.	16b-\L	.	16dd\	-ro
.	.	16a\JJ	.	16cc,\	ad
!	!	!LO:TX:a:t=P:problem=mixed beam	!	!	!
8r	.	8f/L	.	8b-\	te
8G\L	.	8dd\J	.	8b-\	ſu-
8C\	.	8ee-\L	.	8cc\	-ſpi-
8D\J	#	16dd\L	.	16b-\	-ro
.	.	16cc\JJ	.	16a\	ad
!LO:LB:g=original	!	!	!	!	!
=56	=56	=56	=56	=56	=56
4G\	.	4b-/	.	16g/LL	Te
.	.	.	.	16d/	.
.	.	.	.	16g/	.
.	.	.	.	16an#/JJ	.
!	!	!	!	!LO:LB:g=original	!
8r	.	4r	.	16g\LL	.
.	.	.	.	16any\	.
8A\	6/	.	.	16b-\	.
.	.	.	.	16cc\JJ	.
8B-\L	6	2r	.	4dd\	.
16d\L	#	.	.	.	.
16c\JJ	.	.	.	.	.
8B-\L	6	.	.	8r	.
8A\J	6	.	.	8dd\	O
=57	=57	=57	=57	=57	=57
4G\	.	2r	.	16b-\LL	Je-
.	.	.	.	16a\JJ	.
.	.	.	.	8b-\	-su
*	*	*	*	*	*ij
4D\	.	.	.	16a\LL	Je-
.	.	.	.	16g\JJ	.
.	.	.	.	8a\	-su
*	*	*	*	*	*Xij
8E-\L	.	4r	.	4.g/	Cha-
16D\L	.	.	.	.	.
16E-\JJ	.	.	.	.	.
8C/L	.	8r	.	.	.
16BB-/L	.	8cc\	.	8ee-\	-ra
16AA/JJ	.	.	.	.	.
=58	=58	=58	=58	=58	=58
8BB-/L	.	8b-/L	.	8dd\	Cha-
8C/J	.	16a/L	.	16cc\LL	-ra
.	.	16g/JJ	.	16b-\JJ	.
!LO:TX:a:t=P:problem=mixed beam	!	!	!	!	!
8D\L	.	4f#X/	.	8.a\	re-
8DD/J	4	.	.	.	.
.	3	.	.	16g\	-qui-
!LO:TX:a:t=P:problem=mixed beam	!	!	!	!	!
8GG/L	.	4g/	.	4g/	-es
8G\J	.	.	.	.	.
16F\LL	.	4r	.	4r	.
16E-\	.	.	.	.	.
16D\	.	.	.	.	.
16C\JJ	.	.	.	.	.
!	!	!	!	!LO:TX:a:t=P:problem=w źródle "Da Capo" zapisane na pięciolinii	!
!	!	!LO:TX:a:t=P:problem=w źródle "Da Capo" zapisane na pięciolinii	!	!	!
!LO:TX:a:t=P:problem=w źródle "Da Capo" zapisane na pięciolinii, za ostatnim taktem	!	!	!	!	!
!LO:TX:b:t=Da Capo	!	!LO:TX:b:t=Da \nCapo	!	!LO:TX:b:t=Da \nCapo	!
!LO:TX:b:i:t=Sygnum	!	!	!	!	!
==	==	==	==	==	==
*-	*-	*-	*-	*-	*-
!!!system-decoration: [(s1)(s2)(s3)]
!!!RDF**dynam: f = "forte", 'fontstyle="italic"
!!!RDF**dynam: p = "piano", 'fontstyle="italic"
!!!RDF**kern: > = above
!!!RDF**kern: < = below
!!!EED: Antoni Szymański
!!!EEV: 2020-11-02
!!!ENC: Andrzej Kubiczek
!!!END: 2020-05-23
